packages/icons/svgs/duotone/Source=flow-line.svg

<svg width="24" height="24" viewBox="0 0 24 24" fill="none" xmlns="http://www.w3.org/2000/svg">
<path d="M11 17.4997V6.49966C10.9998 5.48687 10.1798 4.66683 9.16699 4.66666C8.15405 4.66666 7.33318 5.48677 7.33301 6.49966V9.66666C7.33301 11.6922 5.69246 13.3335 3.66699 13.3336H3C2.44782 13.3336 2.00018 12.8858 2 12.3336C2 11.7814 2.44772 11.3336 3 11.3336H3.66699C4.58789 11.3335 5.33301 10.5876 5.33301 9.66666V6.49966C5.33318 4.3822 7.04948 2.66666 9.16699 2.66666C11.2844 2.66683 12.9998 4.3823 13 6.49966V17.4997C13 18.5126 13.8201 19.3335 14.833 19.3336C15.8461 19.3336 16.667 18.5127 16.667 17.4997V14.3336C16.667 12.3081 18.3075 10.6668 20.333 10.6667H21L21.1025 10.6715C21.6067 10.7229 22 11.149 22 11.6667C22 12.1843 21.6067 12.6104 21.1025 12.6618L21 12.6667H20.333C19.4121 12.6668 18.667 13.4127 18.667 14.3336V17.4997C18.667 19.6173 16.9506 21.3336 14.833 21.3336C12.7155 21.3335 11 19.6172 11 17.4997Z" fill="black" style="fill:black;fill-opacity:1;"/>
</svg>

<svg xmlns="http://www.w3.org/2000/svg" width="24" height="24" viewBox="0 0 24 24"><path d="M11 17.5v-11a1.833 1.833 0 1 0-3.667 0v3.167a3.666 3.666 0 0 1-3.666 3.667H3a1 1 0 0 1 0-2h.667c.92 0 1.666-.746 1.666-1.667V6.5A3.833 3.833 0 0 1 13 6.5v11a1.833 1.833 0 1 0 3.667 0v-3.166a3.666 3.666 0 0 1 3.666-3.667H21l.102.005a1 1 0 0 1 0 1.99l-.102.005h-.667c-.92 0-1.666.746-1.666 1.667V17.5a3.834 3.834 0 1 1-7.667 0"/></svg>
